images/aside-menu-icon-2.svg

<svg width="24" height="24" viewBox="0 0 24 24" fill="none" xmlns="http://www.w3.org/2000/svg">
<g id="icons">
<path id="Vector" d="M4 22H20C20.5304 22 21.0391 21.7893 21.4142 21.4142C21.7893 21.0391 22 20.5304 22 20V4C22 3.46957 21.7893 2.96086 21.4142 2.58579C21.0391 2.21071 20.5304 2 20 2H8C7.46957 2 6.96086 2.21071 6.58579 2.58579C6.21071 2.96086 6 3.46957 6 4V20C6 20.5304 5.78929 21.0391 5.41421 21.4142C5.03914 21.7893 4.53043 22 4 22ZM4 22C3.46957 22 2.96086 21.7893 2.58579 21.4142C2.21071 21.0391 2 20.5304 2 20V11C2 9.9 2.9 9 4 9H6" stroke="white" stroke-width="1.5" stroke-linecap="round" stroke-linejoin="round"/>
<path id="Vector_2" d="M18 14H10" stroke="white" stroke-width="1.5" stroke-linecap="round" stroke-linejoin="round"/>
<path id="Vector_3" d="M15 18H10" stroke="white" stroke-width="1.5" stroke-linecap="round" stroke-linejoin="round"/>
<path id="Vector_4" d="M10 6H18V10H10V6Z" stroke="white" stroke-width="1.5" stroke-linecap="round" stroke-linejoin="round"/>
</g>
</svg>

<svg width="24" height="24" fill="none" xmlns="http://www.w3.org/2000/svg"><g id="icons" stroke="#fff" stroke-width="1.5" stroke-linecap="round" stroke-linejoin="round"><path id="Vector" d="M4 22h16a2 2 0 002-2V4a2 2 0 00-2-2H8a2 2 0 00-2 2v16a2 2 0 01-2 2zm0 0a2 2 0 01-2-2v-9c0-1.1.9-2 2-2h2"/><path id="Vector_2" d="M18 14h-8"/><path id="Vector_3" d="M15 18h-5"/><path id="Vector_4" d="M10 6h8v4h-8V6z"/></g></svg>
